!!!COM: Vivaldi, Antonio Lucio
!!!CDT: 1678/03/04-1741/08/28
!!!OPR: 12 Sonatas for Violin and Basso continuo
!!!OTL: Sonata in A minor, op. @{OPS}, no. @{ONM} (@{SCT})
!!!OPS: 2
!!!ONM: 12
!!!OMV: 1. Preludio
!!!SCT: RV 32
!!!SCA: Antonio Vivaldi: Thematisch-systematisches Verzeichnis seiner Werke (Ryom-Verzeichnis)
!!!OMD: Largo
!!!key: a
**kern	**fb	**kern
*part2	*	*part1
*staff2	*	*staff1
*ICklav	*	*ICstr
*Icemba	*	*Ivioln
*I"Basso continuo	*	*I"Violino
*I'bc	*	*I'v
*>[A,A,B,B]	*>[A,A,B,B]	*>[A,A,B,B]
*>norep[A,B]	*>norep[A,B]	*>norep[A,B]
*>A	*>A	*>A
*clefF4	*	*clefG2
*k[]	*	*k[]
*a:	*	*a:
*M4/4	*	*M4/4
*met(c)	*	*met(c)
*MM35	*	*MM35
=1	=1	=1
4A\	.	(16.aa\LL
.	.	32cc\k)
.	.	(16.b\
.	.	32a\JJk)
4G\	6	(16.ee/LL
.	.	32g/k)
.	.	(16.f/
.	.	32e/JJk)
4F\	.	(16.a/LL
.	.	32c/k)
.	.	(16.B/
.	.	32A/JJk)
4GG#X/	6	(8.e/Lt
.	5	16d/Jk)
=2	=2	=2
8AA/L	.	(16.c/LL
.	.	32B/Jk)
8BB/J	.	8A/J
8C/L	.	16r
.	.	16ee\LL
8AA/J	.	(16.dd\
.	.	32cc\JJk)
8D\L	.	(16.ff\LL
.	.	32dd\k)
8G\J	.	(16.cc\
.	.	32b\JJk)
8C\L	.	(16.ee\LL
.	.	32cc\k)
8F\J	.	(16.b\
.	.	32a\JJk)
!!LO:LB:g=original
=3	=3	=3
8BB/L	6#/	(16.dd\LL
.	.	32g#X\k)
16C/L	.	(16.a\
16D/JJ	.	.
.	.	32dd\JJk)
8E/L	3	(8.b\Lt
8EE/J	.	.
.	.	16a\Jk)
16.AA\LL	.	4a/
32c\k	.	.
16.d\	.	.
32e\JJk	.	.
16.A\LL	.	16r
.	.	16cc\LL
32A\k	.	.
16.B\	.	(16.dd\
32c\JJk	.	32ee\JJk)
=4	=4	=4
8B\L	5	(16.dd/LL
.	.	32b/k)
8BB\J	6	(16.g/
.	.	32a/JJk)
8D/L	.	(8.f/LT
8GG/J	.	.
.	.	32e/LL
.	.	32f/JJJ)
16.C\LL	.	(16.e/LL
32c\k	.	32d/Jk)
16.d\	.	8c/J
32e\JJk	.	.
8E/L	6	16r
.	.	16cc\LL
8C/J	.	(16.dd\
.	.	32ee\JJk)
=5	=5	=5
4F\	.	(16.f\LL
.	.	32cc\k)
.	.	(16.dd\
.	.	32ee\JJk)
4F#X\	6	(16dd\LL
.	.	16cc\
.	.	16b\
.	.	16cc\JJ)
8G\L	.	(8.g/L
8Fn\J	.	.
.	.	16b/Jk)
8E\L	6	(16.cc/LL
.	.	32e/k)
8F\J	.	(16.d/
.	.	32c/JJk)
!!LO:LB:g=original
=6	=6	=6
8G\L	.	(16G/LL
.	.	16d/
16E\L	6	16.cc/
16F\JJ	.	.
.	.	32dd/JJk)
8G/L	5 4	8.b\Lt
8GG/J	3	.
.	.	16cc\Jk
8C\L	.	(16.cc\LL
.	.	32dd\k)
8G\J	.	(16.ee-X\
.	.	32dd\JJk)
8A\L	#	(16.cc#X/LL
.	.	32a/k)
8E\J	6#/	(16.g/
.	.	32cc#y/JJk)
=7	=7	=7
8F\L	6	(16.dd\LL
.	.	32ee\k)
8A\J	.	(16.ff\
.	.	32ee\JJk)
8B\L	#	(16.dd#X\LL
.	.	32b\k)
8F#X\J	6#/	(16.a\
.	.	32dd#y\JJk)
8G\L	6	(16ee\LL
.	.	16g\)
16F#y\L	.	(16a\
16E\JJ	.	16gg\JJ)
8A\L	6#/ 5	(16ff#X\LL
.	.	16ee\)
8B\J	#	(16b\
.	.	16dd#y\JJ)
!!LO:LB:g=original
=8	=8	=8
4E\	.	(32ee\LLL
.	.	32dd#X\
.	.	32ee\
.	.	32gg\)
.	.	(32ee\
.	.	32dd#y\
.	.	32ee\
.	.	32gg\JJJ)
4r	.	(32ee\LLL
.	.	32dd#y\
.	.	32ee\
.	.	32gg\)
.	.	(32ee\
.	.	32dd#y\
.	.	32ee\
.	.	32gg\JJJ)
2E\	.	2ee\t
=9:|!|:	=9:|!|:	=9:|!|:
*>B	*>B	*>B
4e\	.	(16.eee\LL
.	.	32gg\k)
.	.	(16.ff#X\
.	.	32ee\JJk)
4dn\	6	(16.bb\LL
.	.	32ddn\k)
.	.	(16.cc\
.	.	32b\JJk)
4c\	.	(16.ee/LL
.	.	32g/k)
.	.	(16.f#X/
.	.	32e/JJk)
4D#X\	6	(8.b/Lt
.	5	16a/Jk)
=10	=10	=10
8E\L	.	(16.g/LL
.	.	32f#X/Jk)
8E\J	.	8e/J
8G\L	.	16r
.	.	16ee\LL
8E\J	.	(16.ff\
.	.	32gg\JJk)
8A\L	#	(16.cc#X\LL
.	.	32ee\k)
8AA\J	.	(16.a\
.	.	32ee\JJk)
8C#X/L	7-r 5	(16.g/LL
.	.	32b-X/k)
8AA/J	#	(16.a/
.	.	32g/JJk)
!!LO:LB:g=original
=11	=11	=11
8D\L	#	4f#X/t
8F#X\J	.	.
8A\L	6#/	16r
.	.	16ff#X\LL
8F#y\J	.	(16.gg\
.	.	32aa\JJk)
8B\L	#	(16.dd#X\LL
.	.	32ff#y\k)
8BB\J	.	(16.b\
.	.	32ff#y\JJk)
8D#X/L	5	(16.a\LL
.	.	32cc\k)
8BB/J	7 #	(16.b\
.	.	32a\JJk)
=12	=12	=12
8e\L	#	(16.g#X\LL
.	.	32b\Jk)
8E\J	.	[8ee\J
8G#X\L	6	(16.ee\LL]
.	.	32dd\k)
8E\J	7 #	(16.cc\
.	.	32b\JJk)
8A\L	.	(16.a\LL
.	.	32cc\Jk)
8AA\J	.	[8aa\J
8C/L	.	(16.aa\LL]
.	.	32gg\k)
8AA/J	.	(16.ff#X\
.	.	32ee\JJk)
=13	=13	=13
8B\L	#	(16.b\LL
.	.	32dd#X\Jk)
8BB\J	.	[8bb\J
8D#X/L	6	(16.bb\LL]
.	.	32aa\k)
8BB/J	.	(16.gg\
.	.	32ff#X\JJk)
8e\L	.	(16.ee\LL
.	.	32bb\Jk)
8E\J	.	[8eee\J
8G#X\L	6	(16.eee\LL]
.	.	32ddd\k)
8E\J	.	(16.ccc\
.	.	32bb\JJk)
!!LO:LB:g=original
=14	=14	=14
8A\L	.	(16.ccc\LL
.	.	32aa\k)
8G\J	.	(16.bb\
.	.	32ccc\JJk)
8F#X\L	6#/	(16.aa\LL
.	.	32ff#X\k)
8E\J	.	(16.gg\
.	.	32aa\JJk)
8D#X/L	6	(16.ff#y\LL
.	.	32dd#X\k)
8BB/J	.	(16.ee\
.	.	32ff#y\JJk)
8D#y/L	5	(16.a\LL
.	.	32cc\k)
8BB/J	.	(16.b\
.	.	32a\JJk)
=15	=15	=15
8e\L	#	(16.g#X\LL
.	.	32b\Jk)
8E\J	.	[8ee\J
8G#X\L	6	(16.ee\LL]
.	.	32ff\k)
8E\J	.	(16.ee\
.	.	32dd\JJk)
8A\L	#	(16.cc#X\LL
.	.	32ee\Jk)
8Gn\J	6-r	[8bb-X\J
4C#X/	7-r	(16.bb-y\LL]
.	.	32gg\k)
.	6	(16.aa\
.	.	32ee\JJk)
=16	=16	=16
16.D\LL	.	(16.ff\LL
32E\k	.	32cc#X\k)
16.F\	.	(16.dd\
32G\JJk	.	32f\JJk)
8A\L	4	(16A/LL
.	.	16e/
8AA\J	#	16.dd/)
.	.	32cc#y/JJk
8D\L	.	8.dd\L
8d\J	.	.
.	.	16ee\Jk
8D/L	6	(16.ff\LL
.	.	32dd\k)
8C/J	.	(16.ee\
.	.	32cc\JJk)
!!LO:PB:g=original
=17	=17	=17
8G\L	.	(16.G/LL
.	.	32b/k)
16E\L	6	(16.cc/
16F\JJ	.	.
.	.	32e/JJk)
8G/L	4	(16G/LL
.	.	16d/
8GG/J	3	16.cc/)
.	.	32b/JJk
16.C\LL	.	4cc\
32c\k	.	.
16.d\	.	.
32e\JJk	.	.
8A\L	.	16r
.	.	16cc\LL
8AA\J	.	(16.dd\
.	.	32ee\JJk)
=18	=18	=18
8E/L	6	(16.cc/LL
.	.	32g#X/k)
8D/J	.	(16.a/
.	.	32b/JJk)
8C#X/L	6	(16.a/LL
.	.	32e/k)
8AA/J	.	(16.f/
.	.	32g/JJk)
8D\L	.	(16.f/LL
.	.	32c#X/Jk)
8d\J	.	8d/J
8D\L	.	16r
.	.	16dd\LL
8d\J	.	(16.ee\
.	.	32ff\JJk)
=19	=19	=19
8D\L	6-r	(16b-X/LL
.	.	16a/
8d\J	.	16.b-y/)
.	.	32b-y/JJk
8D\L	.	(16b-y/LL
.	.	16a/
8d\J	.	16.b-y/)
.	.	32b-y/JJk
8E\L	#	8.gg#X\L
8F#X\J	.	.
.	.	16aa\Jk
8G#X\L	.	(16.bbn\LL
.	.	32ee\k)
8E\J	.	(16.ff\
.	.	32dd\JJk)
!!LO:LB:g=original
=20	=20	=20
8A\L	.	(16.cc\LL
.	.	32ee\k)
16C\L	6	(16.aa\
16D\JJ	.	.
.	.	32cc\JJk)
8E/L	4	(16e\LL
.	.	16b\
8EE/J	#	16.aa\)
.	.	32gg#X\JJk
8AA\L	.	8.aa\L
8c#X\J	6 5nr	.
.	.	16ggn\Jk
8d\L	.	(16.ff\LL
.	.	32ee\k)
[8D\J	.	(16.dd\
.	.	32cc\JJk)
=21	=21	=21
16.D\LL]	6-r	(16.b-X/LL
32E\k	.	32g#X/k)
16.C\	6	(16.a/
32D\JJk	.	32dd/JJk)
8E/L	5 4	8.b/Lt
8EE/J	#	.
.	.	16a/Jk
8AA\L	.	8.a\L
8c#X\J	6	.
.	.	16aa\Jk
8d\L	.	(16.ff\LL
.	.	32ee\k)
[8D\J	.	(16.dd\
.	.	32cc\JJk)
=22	=22	=22
16.D\LL]	6-r	(16.b-X/LL
32E\k	.	32g#X/k)
16.C\	6	(16.a/
32D\JJk	.	32dd/JJk)
8E/L	5 4	8.b/Lt
8EE/J	#	.
.	.	16a/Jk
2AA/	.	2a/
=:|!	=:|!	=:|!
*-	*-	*-
!!!SMS: RV 32 / Estienne Roger, Amsterdam [facs.]
!!!ENC: Fran Bennion; rev. 04/21 E. Correia
!!!END: 2005/01/03
!!!ONB: Converted from MuseData with musedata2hum on Sat May 11 12:07:53 2024
!!!YEM: (C) 2005, 2005 Center for Computer Assisted Research in the Humanities.
!!!system-decoration: [(s1,s2)]
!!!URL-info: https://wiki.ccarh.org/wiki/MuseData:_Antonio_Vivaldi#Op._2:_Sonate_a_violino_e_basso_per_il_cembalo
!!!URL-pdf: https://pdf.musedata.org/vivaldi-op02-no12.pdf#page=1 MuseData edition
!!!URL-pdf: http://conquest.imslp.info/files/imglnks/usimg/b/b7/IMSLP99075-PMLP183164-Vivaldi_-_Sonatas_Op2.pdf#page=42 Estienne Roger Amsterdam: Estienne Roger, No.2, n.d.[1711].
!!!URL-youtube: https://www.youtube.com/watch?v=SiijZmW9jKM&t=3784s L'Arte dell'Arco
!!!title: @{OTL}, mov. @{OMV}
!!!filter-chint: chint -mid
!!!EEV: 2024/05/11
!!!source-file: https://bitbucket.org/musedata/vivaldi/src/master/roger/op2/no12/stage2/01/01
!!!source-file: https://bitbucket.org/musedata/vivaldi/src/master/roger/op2/no12/stage2/01/02
